!!!COM: Palestrina, Giovanni Perluigi da
!!!OPR: Missa Petra sancta
!!!OTL: Agnus I
**kern	**kern	**kern	**kern	**kern
*Ibass	*Itenor	*Itenor	*Icalto	*Icant
!Bassus	!Tenor 2	!Tenor 1	!Altus	!Cantus
*clefF4	*clefGv2	*clefGv2	*clefG2	*clefG2
*k[]	*k[]	*k[]	*k[]	*k[]
*A:aeo	*A:aeo	*A:aeo	*A:aeo	*A:aeo
*M4/2	*M4/2	*M4/2	*M4/2	*M4/2
=1	=1	=1	=1	=1
0r	0r	0r	2.e	0r
.	.	.	4f	.
.	.	.	2g	.
.	.	.	2a	.
=2	=2	=2	=2	=2
0r	0r	2.e	2.g	1ee
.	.	4f	4a	.
.	.	2g	2b	1ee
.	.	2a	2cc	.
=3	=3	=3	=3	=3
0r	0r	2f	2a	2dd
.	.	2e	2g	2cc
.	.	1d	2a	1ff
.	.	.	2b	.
=4	=4	=4	=4	=4
0r	2.A	2.c	1cc	1ee
.	4B	4d	.	.
.	2c	2e	1r	2.a
.	2d	2f	.	.
.	.	.	.	4b
=5	=5	=5	=5	=5
2.A	2.c	1e	1a	4cc
.	.	.	.	4dd
.	.	.	.	1ee
4B	4d	.	.	.
2c	2e	1r	1a	.
2d	2f	.	.	[2dd
=6	=6	=6	=6	=6
2B-	2d	0r	2g	4dd]
.	.	.	.	4ee
2A	2c	.	2f	1ff
1G	2d	.	1b-	.
.	2e	.	.	2ee
=7	=7	=7	=7	=7
1.F	2.f	2.A	1a	2dd
.	.	.	.	2cc
.	4g	4B	.	.
.	[1a	2c	1r	1ff
2D	.	2d	.	.
=8	=8	=8	=8	=8
1A	1a]	2.c	2.e	2.ee
.	.	4d	4f	8dd
.	.	.	.	8cc
1r	1r	2e	2g	2b
.	.	2f	[2a	2a
=9	=9	=9	=9	=9
1r	2r	[0e	2a]	1b
.	2e	.	2g	.
1A	2c	.	[1cc	4a
.	.	.	.	4b
.	4A	.	.	4cc
.	4B	.	.	4dd
=10	=10	=10	=10	=10
1A	4c	1e]	2cc]	2ee
.	4d	.	.	.
.	4e	.	2a	4cc
.	4f	.	.	4dd
2G	2g	1r	2b-	4ee
.	.	.	.	4dd
2F	2c	.	4a	[2ff
.	.	.	4g	.
=11	=11	=11	=11	=11
1B-	1d	0r	2f	4ff]
.	.	.	.	4ee
.	.	.	2g	1dd
1A	1e	.	[1a	.
.	.	.	.	2cc#
=12	=12	=12	=12	=12
0D	2f	2r	2a]	2dd
.	2f	2a	2d	2ff
.	1d	1f	2a	1ff
.	.	.	2b	.
=13	=13	=13	=13	=13
0r	1c	2g	2cc	2.ee
.	.	2e	2g	.
.	.	.	.	4dd
.	1r	2f	2a	2cc
.	.	2g	[2b	2b
=14	=14	=14	=14	=14
0r	0r	2a	4b]	2cc
.	.	.	4a	.
.	.	2d	1a	2dd
.	.	2e	.	1b
.	.	2e	2g#	.
=15	=15	=15	=15	=15
1A	2r	2.c	2a	0a
.	2e	.	2cc	.
.	.	4d	.	.
1A	1c	2e	1cc	.
.	.	2f	.	.
=16	=16	=16	=16	=16
2.G	2d	1g	2.b	1r
.	2B	.	.	.
4F	.	.	4a	.
2E	2c	1r	2g	2r
2D	[2d	.	2f	2a
=17	=17	=17	=17	=17
2E	4d]	2r	2g	1cc
.	4c	.	.	.
2F	1c	2f	2a	.
1D	.	1f	2a	1dd
.	2B	.	2d	.
=18	=18	=18	=18	=18
2C	1c	2.e	2r	1g
2E	.	.	2g	.
.	.	4d	.	.
2F	1r	2c	2f	2a
2G	.	2B	4e	[2b
.	.	.	4d	.
=19	=19	=19	=19	=19
2F	1r	2c	1f	4b]
.	.	.	.	4a
2D	.	2d	.	1a
1E	2r	1B	2e	.
.	2e	.	2b	2g#
=20	=20	=20	=20	=20
1A	2e	2A	1cc	0a
.	2e	2c	.	.
1D	2.f	4d	2a	.
.	.	4e	.	.
.	.	4f	4d	.
.	4e	4g	4e	.
=21	=21	=21	=21	=21
1D	2.d	2a	4f	1r
.	.	.	4g	.
.	.	2f	1a	.
.	4c	.	.	.
1E	1B	1e	.	1b
.	.	.	2g#	.
=22	=22	=22	=22	=22
1A	1A	2e	2a	0cc
.	.	2e	1a	.
1r	2r	1f	.	.
.	[2f	.	2a	.
=23	=23	=23	=23	=23
0r	2f]	1B-	1.b-	1.dd
.	2f	.	.	.
.	2g	1B-	.	.
.	2f	.	2a	2dd
=24	=24	=24	=24	=24
0r	2e	0c	2g	0cc
.	1f	.	2a	.
.	.	.	1g	.
.	2e	.	.	.
=25	=25	=25	=25	=25
1r	1f	2F	2.cc	2.a
.	.	1f	.	.
.	.	.	4b	4b
1A	1c	.	1a	1cc
.	.	2e	.	.
=26	=26	=26	=26	=26
0B-	2d	1d	1f	0r
.	2.f	.	.	.
.	.	2d	1b-	.
.	4e	.	.	.
.	2d	[2f	.	.
=27	=27	=27	=27	=27
1F	2c	4f]	0a	0r
.	.	4e	.	.
.	1f	4d	.	.
.	.	4c	.	.
1F	.	2d	.	.
.	2e	2c	.	.
=28	=28	=28	=28	=28
0G	2d	2B	0g	1r
.	1c	2e	.	.
.	.	1d	.	1dd
.	2B	.	.	.
=29	=29	=29	=29	=29
1C	1c	1c	2g	1ee
.	.	.	2g	.
1r	1f	1r	2a	1ff
.	.	.	[2cc	.
=30	=30	=30	=30	=30
0r	1g	2r	2cc]	1dd
.	.	1g	2b	.
.	1c	.	[1cc	[1ee
.	.	2g	.	.
=31	=31	=31	=31	=31
0r	1c	2a	2cc]	1ee]
.	.	1g	2b	.
.	1d	.	1a	1dd
.	.	2f#	.	.
=32	=32	=32	=32	=32
1r	2G	1g	0b	1dd
.	2.g	.	.	.
1G	.	2r	.	2dd
.	4f	.	.	.
.	4e	2g	.	[2ee
.	4d	.	.	.
=33	=33	=33	=33	=33
0A	2c	2e	0a	2ee]
.	2d	2f	.	1dd
.	1e	2e	.	.
.	.	[2a	.	2cc#
=34	=34	=34	=34	=34
1D	2d	4a]	2r	2.dd
.	.	4g	.	.
.	2.f	4f	2a	.
.	.	4e	.	4ee
1D	.	4d	2a	1ff
.	4e	4c	.	.
.	4d	4B	[2b	.
.	4c	4A	.	.
=35	=35	=35	=35	=35
0E	2B	2G#	2b]	0ee
.	4c	2A	1a	.
.	4d	.	.	.
.	1e	1B	.	.
.	.	.	2g#	.
=36	=36	=36	=36	=36
0A	0e	0A	0a	0cc#
==	==	==	==	==
*-	*-	*-	*-	*-
!!!CDT: 1525/^1526/-1594/2/2
!!!OCY: Italia
!!!AGN: Mass (Parody)
!!!AST: renaissance, vocal
!!!ASW: Madrigal 1561 (Palestrina)
!!!PWK: Masses, Book 10
!!!RNB: Cadence finals: D
!!!YOR: Le Opere Complete, v. 27, p. 52
!!!YOO: Rome, Italy: Fratelli Scalera
!!!END: 1992//
!!!EED: John Miller
!!!YEC: Copyright 2000, John Miller
!!!YEN: United States of America
!!!YEM: Rights to all derivative electronic formats reserved.
!!!YEM: Refer to licensing agreement for further details.
!!!YEM: This file must be accompanied by the licensing agreement.
!!!YEM: A copy of the licensing agreement may be found at http://www.music-cog.ohio-state.edu/HumdrumDatabases/Palestrina/license.txt
!!!EMD: converted to Humdrum by Bret Aarden
